!!!!SEGMENT: pl-wtm--r-248-n--002_noskowski-zygmunt--na-wodzie.krn
!!!cenid: 18xx:2156
!!!COM: Noskowski, Zygmunt
!!!COM-rismID: pe106604
!!!CDT: 1846/05/02-1909/07/23
!!!CNT: Polish
!!!OTL: Na wodzie
!!!PDT:
!!!AGN: Secular
!!!YEC: Copyright 2022 Narodowy Instytut Fryderyka Chopina (https://polishscores.org)
!!!YEM: License CC-BY-4.0 (https://creativecommons.org/licenses/by/4.0)
!!!SMS-siglum: PL-Wtm
!!!SMS-shelfmark: R 248/N
!!!SMS-shelfwork: 002 W
!!!SMS-variant:
!!!SMS-altvar:
!!!NIFC-rismSourceID: 1001100251
!!!NIFC-rismChildID: 1001100251
!!!NIFC-islandoraID:
!!!URL-pdf-islandora:
!!!URL-scan:
!!!IIIF:
!!!ONB-nifc: UWAGA: w zbiorze: 1. Serenada, 2. Na wodzie
!!!OMD: Allegretto animato
!!!AIN: 1 bass 1 tenor
!!!key:
**kern	**text	**mod-text	**text	**mod-text	**text	**mod-text	**dynam	**mod-dynam	**kern	**text	**text	**text	**dynam
*part2	*	*	*	*	*	*	*	*	*part1	*	*	*	*
*staff2	*	*	*	*	*	*	*	*	*staff1	*	*	*	*
*Ibass	*	*	*	*	*	*	*	*	*Itenor	*	*	*	*
*I"Basy I i II	*	*	*	*	*	*	*	*	*I"Tenory I i II	*	*	*	*
*clefF4	*	*	*	*	*	*	*	*	*clefG2	*	*	*	*
*	*	*	*	*	*	*	*	*	*ITrd7c12	*	*	*	*
*k[b-e-a-d-g-]	*	*	*	*	*	*	*	*	*k[b-e-a-d-g-]	*	*	*	*
*D-:	*	*	*	*	*	*	*	*	*D-:	*	*	*	*
*M6/8	*	*	*	*	*	*	*	*	*M6/8	*	*	*	*
*>[A,A,A]	*	*>[A,A,A]	*	*>[A,A,A]	*	*>[A,A,A]	*>[A,A,A]	*>[A,A,A]	*>[A,A,A]	*>[A,A,A]	*>[A,A,A]	*>[A,A,A]	*>[A,A,A]
*>A	*	*>A	*	*>A	*	*>A	*>A	*>A	*>A	*>A	*>A	*>A	*>A
*^	*	*	*	*	*	*	*	*	*^	*	*	*	*
!	!	!	!	!	!	!	!	!LO:DY:rj	!LO:DY:rj	!	!	!	!	!	!LO:DY:b:rj
8A-/	8A-\	.	1. Już	.	2. Nie-	.	3. My	mf	mf	8A-/	8A-\	1. Już	2. Nie-	3. My	mf
=1	=1	=1	=1	=1	=1	=1	=1	=1	=1	=1	=1	=1	=1	=1	=1
4.F/	4.D-\	.	szem-	.	-bio-	.	pły-	.	.	(4B-/	(4B-\	szem-	-bio-	pły-	.
.	.	.	.	.	.	.	.	.	.	8c/)	8c\)	.	.	.	.
4G-/	4E-\	.	-rze	.	-sa	.	-niem	.	.	4B-/	4B-\	-rze	-sa	-niem	.
8G-/	8E-\	.	nurt	.	po-	.	fa-	.	.	8A-/	8A-\	nurt	po-	fa-	.
=2	=2	=2	=2	=2	=2	=2	=2	=2	=2	=2	=2	=2	=2	=2	=2
4.F/	4.F\	.	wo-	.	-god-	.	-la-	.	.	4.d-/	4.A-\	wo-	-god-	-la-	.
4E-/	4E-\	.	-dy	.	-ne	.	-mi	.	.	4c/	4Gn\	-dy	-ne	-mi	.
8E-/	8E-\	.	i	.	spo-	.	we-	.	.	8B-/	8G\	i	spo-	we-	.
=3	=3	=3	=3	=3	=3	=3	=3	=3	=3	=3	=3	=3	=3	=3	=3
4.E-/	(4AA-\	.	wi-	.	-koj-	.	-so-	.	.	(4c/	4.G-X\	wi-	-koj-	-so-	.
.	8BB-\)	.	.	.	.	.	.	.	.	8d-/)	.	.	.	.	.
4E-/	4C\	.	-cher	.	-ny	.	-ło	.	.	4e-/	4G-\	-cher	-ny	-ło	.
8G-/	8E-\	.	już	.	wód	.	het,	.	.	8c/	8A-\	już	wód	het,	.
!!LO:LB:g=original
=4	=4	=4	=4	=4	=4	=4	=4	=4	=4	=4	=4	=4	=4	=4	=4
[4.F/	[4.D-\	.	dmie,	.	bieg	.	w dal,	.	.	(4.d-/	[4.A-\	dmie,	bieg	w dal,	.
8F/]	8D-\]	.	.	.	.	.	.	.	.	8d-/)	8A-\]	.	.	.	.
8r	8r	.	.	.	.	.	.	.	.	8r	8r	.	.	.	.
!	!	!	!	!	!	!	!	!LO:DY:b:rj	!LO:DY:b:rj	!	!	!	!	!	!LO:DY:rj
8F/	8D-\	.	A	.	Nad	.	A	f	f	8d-/	8A-\	A	Nad	A	f
=5	=5	=5	=5	=5	=5	=5	=5	=5	=5	=5	=5	=5	=5	=5	=5
4.Gn/	4.BB-\	.	na-	.	rze-	.	duch	.	.	4.f/	4.d-\	na-	rze-	duch	.
4G/	4E-\	.	-sza	.	-ką	.	nasz	.	.	4e-/	4c\	-sza	-ką	nasz	.
8G/	8E-\	.	łódź	.	zie-	.	po-	.	.	8d-/	8B-\	łódź	zie-	po-	.
=6	=6	=6	=6	=6	=6	=6	=6	=6	=6	=6	=6	=6	=6	=6	=6
4A-/	4AA-\	.	pły-	.	-lo-	.	-do-	.	.	4e-/	4c\	pły-	-lo-	-do-	.
8E-/	8E-\	.	-nie	.	-ny	.	-bny	.	.	8c/	8A-\	-nie	-ny	-bny	.
4E-/	4C\	.	i	.	jej	.	do	.	.	4e-/	4A-\	i	jej	do	.
8E-/	8C\	.	ko-	.	u-	.	tych	.	.	8A-/	8A-\	ko-	u-	tych	.
=7	=7	=7	=7	=7	=7	=7	=7	=7	=7	=7	=7	=7	=7	=7	=7
4.F/	4.D-\	.	-ły-	.	-ro-	.	pło-	.	.	4.B-/	4.A-\	-ły-	-ro-	pło-	.
4.E-/	(4E-\	.	-sze	.	-czy	.	-chych	.	.	4.c/	4.Gn\	-sze	-czy	-chych	.
.	8D-\)	.	.	.	.	.	.	>	>	.	.	.	.	.	>
=8	=8	=8	=8	=8	=8	=8	=8	=8	=8	=8	=8	=8	=8	=8	=8
[4.E-/	[4.C\	.	się,	.	brzeg,	.	fal,	.	.	[4.A-/	[4.A-\	się,	brzeg,	fal,	.
8E-/]	8C\]	.	.	.	.	.	.	]	]	8A-/]	8A-\]	.	.	.	]
8r	8r	.	.	.	.	.	.	.	.	8r	8r	.	.	.	.
!	!	!	!	!	!	!	!	!LO:DY:b:rj	!LO:DY:b:rj	!	!	!	!	!	!LO:DY:b:rj
8A-/	8AA-\	.	My	.	I	.	Nam	p	p	8A-/	8A-\	My	I	Nam	p
!!LO:LB:g=original
=9	=9	=9	=9	=9	=9	=9	=9	=9	=9	=9	=9	=9	=9	=9	=9
4.G-X/	4.AA-\	.	pły-	.	sły-	.	los	.	.	(4e-/	4.c\	pły-	sły-	los	.
.	.	.	.	.	.	.	.	.	.	8f/)	.	.	.	.	.
4G-/	4AA-\	.	-niem	.	-chać	.	jesz-	.	.	4e-/	4c\	-niem	-chać	jesz-	.
8G-/	8AA-\	.	wzdłuż	.	we-	.	-cze	.	.	8c/	8A-\	wzdłuż	we-	-cze	.
=10	=10	=10	=10	=10	=10	=10	=10	=10	=10	=10	=10	=10	=10	=10	=10
4.F/	4.AA-\	.	brze-	.	-so-	.	świe-	.	.	(4d-/	4.A-\	brze-	-so-	świe-	.
.	.	.	.	.	.	.	.	.	.	8c/)	.	.	.	.	.
4D-/	4AA-\	.	-gu	.	-ły	.	-ci,	.	.	4B-/	4F\	-gu	-ły	-ci,	.
8D-/	8AA-\	.	pod	.	gwar	.	jak	.	.	8A-/	8F\	pod	gwar	jak	.
=11	=11	=11	=11	=11	=11	=11	=11	=11	=11	=11	=11	=11	=11	=11	=11
4.D-/	4.AA-\	.	cie-	.	pta-	.	blask	.	.	(4B-/	4.G-\	cie-	pta-	blask	.
.	.	.	.	.	.	.	.	.	.	8e-/)	.	.	.	.	.
4BB-/	4AA-\	.	-niem	.	-sząt	.	zło-	<	<	4d-/	4G-\	-niem	-sząt	zło-	<
8D-/	8AA-\	.	tych	.	i	.	-tych	[[	[[	8B-/	8G-\	tych	i	-tych	.
=12	=12	=12	=12	=12	=12	=12	=12	=12	=12	=12	=12	=12	=12	=12	=12
[4.E-/	[4.AA-\	.	drzew	.	śpiew,	.	zórz	.	.	[4.c/	[4.G-\	drzew	śpiew,	zórz	[
8E-/]	8AA-\]	.	.	.	.	.	.	.	.	8c/]	8G-\]	.	.	.	.
8r	8r	.	.	.	.	.	.	.	.	8r	8r	.	.	.	.
8E-/	8GG-\	.	Spie-	.	Wśród	.	Bo	.	.	8c/	8A-\	Spie-	Wśród	Bo	.
=13	=13	=13	=13	=13	=13	=13	=13	=13	=13	=13	=13	=13	=13	=13	=13
!	!	!	!	!	!	!	!	!LO:HP:t=cresc	!LO:HP:t=cresc	!	!	!	!	!	!LO:HP:t=cresc
4.D-/	4.FF\	.	-wa-	.	kwia-	.	mło-	<	<	(4d-/	4.A-\	-wa-	kwia-	mło-	<
.	.	.	.	.	.	.	.	.	.	8c-X/)	.	.	.	.	.
4D-/	4GG-\	.	-jąc	.	-tów	.	-de	.	.	4B-/	4G-\	-jąc	-tów	-de	.
8D-/	8GG-\	.	przy	.	ty-	.	w nas	.	.	8f/	8B-\	przy	ty-	w nas	.
!!LO:LB:g=original
=14	=14	=14	=14	=14	=14	=14	=14	=14	=14	=14	=14	=14	=14	=14	=14
4E-/	4GGn\	.	wio-	.	-sią-	.	ser-	.	.	(4e-/	4B-\	wio-	-sią-	ser-	.
8E-/	8GG\	.	-śle	.	-ca	.	-ca	.	.	8d-/)	8B-\	-śle	-ca	-ca	.
4E-/	4AA-\	.	nasz	.	i	.	nie	.	.	4c/	4A-\	nasz	i	nie	.
!	!	!	!	!	!	!	!	!LO:DY:rj	!LO:DY:rj	!	!	!	!	!	!LO:DY:rj
8F/	8D-\	.	po-	.	ty-	.	za-	f	f	8d-/	8A-\	po-	ty-	za-	f
=15	=15	=15	=15	=15	=15	=15	=15	=15	=15	=15	=15	=15	=15	=15	=15
[4.G-/	(4.BB-\	.	-ran-	.	-sią-	.	-zna-	.	.	(4.g-/	(4.d-\	-ran-	-sią-	-zna-	.
4G-/]	4C\)	.	.	.	.	.	.	.	.	4f/)	4A-\)	.	.	.	.
8G-/	8C\	.	-ny	.	-ca	.	-ły	.	.	8e-/	8A-\	-ny	-ca	-ły	.
=16	=16	=16	=16	=16	=16	=16	=16	=16	=16	=16	=16	=16	=16	=16	=16
[4.F/	[4.D-\	.	śpiew.	.	drzew.	.	burz	.	.	[4.d-/	[4.A-\	śpiew.	drzew.	burz	.
8F/]	8D-\]	.	.	.	.	.	.	.	.	8d-/]	8A-\]	.	.	.	.
8r	8r	.	.	.	.	.	.	.	.	8r	8r	.	.	.	.
!	!	!	!	!	!	!	!	!LO:DY:rj	!LO:DY:rj	!	!	!	!	!	!LO:DY:rj
8F/	8F\	.	La	.	.	.	.	p	p	8d-/	8A-\	La	.	.	p
=17	=17	=17	=17	=17	=17	=17	=17	=17	=17	=17	=17	=17	=17	=17	=17
!	!	!	!	!	!	!	!	!LO:HP:t=crescendo	!LO:HP:t=crescendo	!	!	!	!	!	!LO:HP:t=crescendo
4F/	4F\	.	la	.	.	.	.	<	<	4d-/	4A-\	la	.	.	<
8F/	8D-\	.	la	.	.	.	.	.	.	8c-X/	8A-\	la	.	.	.
8G-/	8G-\	.	la	.	.	.	.	.	.	8B-/	8B-\	la	.	.	.
8r	8r	.	.	.	.	.	.	.	.	8r	8r	.	.	.	.
8G-/	8G-\	.	la	.	.	.	.	.	.	8f/	8B-\	la	.	.	.
=18	=18	=18	=18	=18	=18	=18	=18	=18	=18	=18	=18	=18	=18	=18	=18
4Gn/	4Gn\	.	la	.	.	.	.	.	.	4e-/	4B-\	la	.	.	.
8G/	8E-\	.	la	.	.	.	.	.	.	8d-/	8B-\	la	.	.	.
8A-/	8A-\	.	la	.	.	.	.	.	.	8c/	8c\	la	.	.	.
8r	8ryy	.	.	.	.	.	.	.	.	8r	8ryy	.	.	.	f
!	!	!	!	!	!	!	!	!LO:DY:rj	!LO:DY:rj	!	!	!	!	!	!
8A-/	8F\	.	la	.	.	.	.	f	f	8d-/	8d-\	la	.	.	.
!!LO:LB:g=original
=19	=19	=19	=19	=19	=19	=19	=19	=19	=19	=19	=19	=19	=19	=19	=19
!LO:MO:mod=4.G-^	!LO:MO:mod=4.E^	!	!	!	!	!	!	!	!	!LO:MO:mod=4.b-^	!LO:MO:mod=4.d^	!	!	!	!
4.G-X/	4.E-\	.	la	.	.	.	.	.	.	4.b-^^/	4.d-\	la	.	.	.
!LO:MO:mod=4.G-^	!LO:MO:mod=4.AA-^	!	!	!	!	!	!	!	!	!LO:MO:mod=4.c^	!LO:MO:mod=4.A-^	!	!	!	!
4.G-/	4.AA-\	.	la	.	.	.	.	.	.	4.c^^/	4.A-\	la	.	.	.
=20	=20	=20	=20	=20	=20	=20	=20	=20	=20	=20	=20	=20	=20	=20	=20
!LO:MO:mod=[4.F^	!LO:MO:mod=[4.D-^	!	!	!	!	!	!	!	!	!LO:MO:mod=[4.d-^	!LO:MO:mod=[4.A-^	!	!	!	!
[4.F/	[4.D-\	.	la!	.	.	.	.	.	.	[4.d-^^/	[4.A-\	la!	.	.	.
8F/]	8D-\]	.	.	.	.	.	.	.	.	8d-/]	8A-\]	.	.	.	.
8r	8ryy	.	.	.	.	.	.	.	.	8r	4ryy	.	.	.	.
8r	8ryy	.	.	.	.	.	.	.	.	8r	.	.	.	.	.
*v	*v	*	*	*	*	*	*	*	*	*	*	*	*	*	*
*	*	*	*	*	*	*	*	*	*v	*v	*	*	*	*
==:|	==:|	==:|	==:|	==:|	==:|	==:|	==:|	==:|	==:|	==:|	==:|	==:|	==:|
*-	*-	*-	*-	*-	*-	*-	*-	*-	*-	*-	*-	*-	*-
!!!system-decoration: {(s1,s2)}
!!!RDF**kern: > = above
!!!RDF**kern: < = below
!!!filter-modern: sic -sq | autostem -r | shed -e "s/LO:DY:(a|b|rj)/LO:dy:$1/L" | modori -m
!!!ENC: Marta Lawrence
!!!END: 2021-06-02
!!!EED: Berenika Jozajtis
!!!EEV: 2021-05-24
!!!ENC-modern: Leszek Kubiak
!!!END-modern: 2022-08-18
